X: 1572
T: Polonäs ur Andreas Dahlgrens notbok nr 3
B: http://www.smus.se/earkiv/fmk/browselarge.php?lang=sw&katalogid=Ma+7&bildnr=00005
B: Andreas Dahlgrens notbok
B: Jämför Polska från Loftahammar som är en annan variant - [[http://www.smus.se/earkiv/fmk/browselarge.php?lang=sw&katalogid=Sm+17&bildnr=00006|SMUS - katalog Sm17 bild 6]]
B: Jämför [[http://www.smus.se/earkiv/fmk/browselarge.php?lang=sw&katalogid=M+19&bildnr=00022|SMUS M19 bild 22]] nr 65 efter [[Personer/Johan August Ericsson]] från [[Platser/Södermanland]]
B: Jämför [[http://www.smus.se/earkiv/fmk/browselarge.php?lang=sw&katalogid=Ma+3b&bildnr=00031|SMUS Ma3b bild 31]] nr 19 efter [[Personer/Jonas Pehrsson]]
B: Jämför [[http://www.smus.se/earkiv/fmk/browselarge.php?lang=sw&katalogid=Ma+18&bildnr=00014|SMUS - katalog Ma18 bild 14]] nr 44 ur [[Notböcker/Lars Larssons notbok]]
B: Jämför [[http://www.smus.se/earkiv/fmk/browselarge.php?lang=sw&katalogid=Ma+4&bildnr=00040|SMUS - katalog Ma4 bild 40]] nr 205 ur [[Notböcker/Kumlins notsamling]]
B: Jämför [[http://www.smus.se/earkiv/fmk/browselarge.php?lang=sw&katalogid=MA+6&bildnr=00030|SMUS - katalog MA6 bild 30]] efter [[Personer/Petter Dufva]]
O: Fågelvik, Tryserum, Småland
N: Se även varianterna [[Musik/1289|+]] och [[Musik/1358|+]]
S: efter Andreas Dahlgren
R: Slängpolska
Z: Nils L
M: 3/4
L: 1/16
K: G
D2GF G2B2 D2c2 | B2AB cBAG F2ED | D2GF G2B2 D2c2 | BAGF G4 G,4 ::
[G,4D4B4g4] ABcA B2AG | [G,4D4B4g4] ABcA B2AG | D2GF G2B2 D2c2 | BAGF G4 G,4 ::
d2>c2 Bcde d2g2 | f2ga g2fe d2cB | (G,D)(BD) (G,D)(BD) (G,D)(BD) | B2AB cBAG F2ED |
(G,D)(BD) (G,D)(BD) (G,D)(BD) | B2AB cBAG F2ED | D2GF G2B2 D2c2 | BAGF G4 G,4 :| 
(:musicend:)
(:music:)
